X:130
T:The Brickmakers
C:John Johnson, 1758
M:2/4
R:Reel
L:1/8
S:Colin Hume's website,  colinhume.com  - chords can also be printed below the stave.
Q:1/4=110
%%MIDI gchord fzczfzcz
K:Gm
P:A
|: B/c/ | "Bb"dB2d | "F"cA2c | "Gm"BG2B | "D7"A^F D2 | "Gm"G2 AB | "D7"cA G^F | "Gm"G2 "Cm"G2 | "Gm"G3 :|
P:B
|: B/c/ | "Bb"db2a- | "F/A"ag2f- | "Bb/G"f2 gf | "F"f2 gA | "Gm"B2 cd | "Eb"e2 fg | "Bb/F"fd cB | "F"BA GF |
"F7"BA2c- | "Bb"cB2d- | "Gm"dc "Cm"eG | "D7"G^F ED | "Gm"G2 AB | "D7"cA G^F | "Gm"G2 "Cm"G2 | "Gm"G3 :|

